X:1
T:Waiting for Tracy
C:Ed Yother
C:c.2006
C:http://edyother.com
M:4/4
L:1/8
R:Reel
K:G
|:d2 dA BcBA | GAGD E2 ED | EGAB cBAG | AGAB dBAG |
d2 dA BcBA | GAGD E2 ED | EGAB cBAG | ED C2 D4 :|
|:E2 EG AGAB | cBAG A2 AB | cBAG AGEG | AGAB G2 GD |
E2 EG AGAB | cBAG A2 AB | dBAG A2 BA | GE C2 D4 :|

